assets/img/braze_icons/file-01.svg

<svg fill="none" height="24" viewBox="0 0 24 24" width="24" xmlns="http://www.w3.org/2000/svg"><path clip-rule="evenodd" d="m8.7587 1h6.4826c.805-.000012 1.4693-.000023 2.0105.04419.5621.04593 1.0788.14449 1.5642.39178.7526.3835 1.3645.99542 1.748 1.74807.2473.48533.3459 1.00204.3918 1.56413.0442.54119.0442 1.20555.0442 2.01051v10.48262c0 .805 0 1.4693-.0442 2.0105-.0459.5621-.1445 1.0788-.3918 1.5642-.3835.7526-.9954 1.3645-1.748 1.748-.4854.2473-1.0021.3459-1.5642.3918-.5412.0442-1.2055.0442-2.0105.0442h-6.48262c-.80496 0-1.46932 0-2.01051-.0442-.56209-.0459-1.0788-.1445-1.56413-.3918-.75265-.3835-1.36457-.9954-1.74807-1.748-.24729-.4854-.34585-1.0021-.39178-1.5642-.04421-.5412-.0442-1.2055-.04419-2.0105v-10.4826c-.00001-.80497-.00002-1.46933.04419-2.01053.04593-.56209.14449-1.0788.39178-1.56413.3835-.75265.99542-1.36457 1.74807-1.74807.48533-.24729 1.00204-.34585 1.56413-.39178.5412-.044213 1.20556-.044202 2.01053-.04419z" fill="#801ed7" fill-rule="evenodd"/></svg>

<svg width="24" height="24" viewBox="0 0 24 24" fill="none" xmlns="http://www.w3.org/2000/svg">
<path fill-rule="evenodd" clip-rule="evenodd" d="M8.7587 1H15.2413C16.0463 0.999988 16.7106 0.999977 17.2518 1.04419C17.8139 1.09012 18.3306 1.18868 18.816 1.43597C19.5686 1.81947 20.1805 2.43139 20.564 3.18404C20.8113 3.66937 20.9099 4.18608 20.9558 4.74817C21 5.28936 21 5.95372 21 6.75868V17.2413C21 18.0463 21 18.7106 20.9558 19.2518C20.9099 19.8139 20.8113 20.3306 20.564 20.816C20.1805 21.5686 19.5686 22.1805 18.816 22.564C18.3306 22.8113 17.8139 22.9099 17.2518 22.9558C16.7106 23 16.0463 23 15.2413 23H8.75868C7.95372 23 7.28936 23 6.74817 22.9558C6.18608 22.9099 5.66937 22.8113 5.18404 22.564C4.43139 22.1805 3.81947 21.5686 3.43597 20.816C3.18868 20.3306 3.09012 19.8139 3.04419 19.2518C2.99998 18.7106 2.99999 18.0463 3 17.2413V6.7587C2.99999 5.95373 2.99998 5.28937 3.04419 4.74817C3.09012 4.18608 3.18868 3.66937 3.43597 3.18404C3.81947 2.43139 4.43139 1.81947 5.18404 1.43597C5.66937 1.18868 6.18608 1.09012 6.74817 1.04419C7.28937 0.999977 7.95373 0.999988 8.7587 1Z" fill="#801ED7"/>
</svg>
